src/public/img/landing/new/external-websites/nvidia.svg

<svg width="120" height="22" viewBox="0 0 120 22" fill="none" xmlns="http://www.w3.org/2000/svg">
<path d="M117.794 17.6418V17.3112H118.002C118.112 17.3112 118.27 17.3235 118.27 17.4581C118.27 17.5928 118.185 17.6418 118.051 17.6418H117.794ZM117.794 17.8744H117.941L118.27 18.4498H118.624L118.258 17.8499C118.441 17.8621 118.588 17.7275 118.6 17.5438V17.4949C118.6 17.1766 118.38 17.0786 118.014 17.0786H117.489V18.4498H117.794V17.8744ZM119.332 17.7642C119.332 16.9562 118.71 16.491 118.014 16.491C117.318 16.491 116.695 16.9562 116.695 17.7642C116.695 18.5722 117.318 19.0374 118.014 19.0374C118.71 19.0374 119.332 18.5722 119.332 17.7642ZM118.942 17.7642C118.966 18.2784 118.563 18.7191 118.051 18.7436H118.014C117.477 18.7681 117.025 18.3396 117.001 17.8009C116.976 17.2623 117.403 16.8093 117.941 16.7848C118.478 16.7603 118.93 17.1888 118.954 17.7275C118.942 17.7397 118.942 17.752 118.942 17.7642Z" fill="black"/>
<path d="M70.9247 4.16242V18.6087H74.9903V4.16242H70.9247ZM38.9375 4.13794V18.5965H43.0397V7.36999L46.2384 7.38224C47.2884 7.38224 48.0209 7.63933 48.5215 8.17801C49.1685 8.86359 49.4249 9.97767 49.4249 11.9977V18.5965H53.405V10.6143C53.405 4.90922 49.779 4.13794 46.2384 4.13794H38.9375ZM77.4809 4.16242V18.6087H84.0737C87.5898 18.6087 88.7375 18.0211 89.9706 16.7111C90.8496 15.7929 91.4112 13.7606 91.4112 11.5447C91.4112 9.51245 90.9351 7.70054 90.0927 6.57422C88.6032 4.55419 86.43 4.16242 83.1824 4.16242H77.4809ZM81.5098 7.29654H83.2557C85.7951 7.29654 87.4311 8.4351 87.4311 11.3978C87.4311 14.3605 85.7951 15.5113 83.2557 15.5113H81.5098V7.29654ZM65.0645 4.16242L61.6704 15.6093L58.4228 4.16242H54.0277L58.667 18.6087H64.5273L69.2155 4.16242H65.0645ZM93.3158 18.6087H97.3813V4.16242H93.3158V18.6087ZM104.719 4.16242L99.0417 18.5965H103.046L103.95 16.0378H110.665L111.519 18.5842H115.878L110.152 4.16242H104.719ZM107.356 6.79459L109.822 13.5525H104.817L107.356 6.79459Z" fill="black"/>
<path d="M12.7006 6.56205V4.57874C12.8959 4.5665 13.0913 4.55426 13.2866 4.55426C18.7073 4.38286 22.2601 9.23094 22.2601 9.23094C22.2601 9.23094 18.4265 14.5687 14.3122 14.5687C13.7628 14.5687 13.2256 14.483 12.7128 14.3116V8.28826C14.8249 8.54535 15.2522 9.47579 16.5098 11.5938L19.33 9.2187C19.33 9.2187 17.2667 6.51308 13.7994 6.51308C13.4331 6.50083 13.0669 6.52532 12.7006 6.56205ZM12.7006 0V2.96272L13.2866 2.92599C20.8195 2.66889 25.7397 9.12076 25.7397 9.12076C25.7397 9.12076 20.0992 16.0011 14.2267 16.0011C13.7139 16.0011 13.2134 15.9521 12.7128 15.8664V17.7028C13.1279 17.7518 13.5552 17.7885 13.9703 17.7885C19.4399 17.7885 23.3956 14.985 27.2291 11.6795C27.864 12.1937 30.4645 13.4302 31.0017 13.9688C27.3634 17.0295 18.8783 19.4903 14.068 19.4903C13.604 19.4903 13.1645 19.4658 12.725 19.4168V22H33.5045V0H12.7006V0ZM12.7006 14.3116V15.8787C7.64612 14.9727 6.2421 9.69616 6.2421 9.69616C6.2421 9.69616 8.67166 7.00278 12.7006 6.56205V8.27602H12.6884C10.5762 8.01892 8.91584 10.0022 8.91584 10.0022C8.91584 10.0022 9.85592 13.3445 12.7006 14.3116ZM3.72707 9.47579C3.72707 9.47579 6.71825 5.04396 12.7128 4.57874V2.96272C6.07117 3.50139 0.333008 9.133 0.333008 9.133C0.333008 9.133 3.58057 18.5598 12.7006 19.4168V17.7028C6.01013 16.8703 3.72707 9.47579 3.72707 9.47579Z" fill="black"/>
</svg>

<svg xmlns="http://www.w3.org/2000/svg" width="120" height="22" fill="none">
  <path fill="#000" d="M117.794 17.642v-.33h.208c.11 0 .268.011.268.146 0 .135-.085.184-.219.184h-.257Zm0 .232h.147l.329.576h.354l-.366-.6a.319.319 0 0 0 .342-.306v-.05c0-.317-.22-.415-.586-.415h-.525v1.37h.305v-.575Zm1.538-.11c0-.808-.622-1.273-1.318-1.273-.696 0-1.319.465-1.319 1.273 0 .808.623 1.273 1.319 1.273s1.318-.465 1.318-1.273Zm-.39 0a.941.941 0 0 1-.891.98h-.037a.98.98 0 0 1-.073-1.96.98.98 0 0 1 1.013.944c-.012.012-.012.024-.012.036ZM70.925 4.162V18.61h4.065V4.162h-4.065Zm-31.987-.024v14.458h4.102V7.37l3.198.012c1.05 0 1.783.257 2.284.796.647.686.903 1.8.903 3.82v6.598h3.98v-7.982c0-5.705-3.626-6.476-7.167-6.476h-7.3Zm38.543.024V18.61h6.593c3.516 0 4.663-.588 5.897-1.898.879-.918 1.44-2.95 1.44-5.166 0-2.033-.476-3.844-1.318-4.97-1.49-2.02-3.663-2.413-6.91-2.413H77.48Zm4.029 3.135h1.746c2.54 0 4.175 1.138 4.175 4.1 0 2.963-1.636 4.114-4.175 4.114H81.51V7.297ZM65.064 4.162 61.67 15.61 58.423 4.162h-4.395l4.639 14.447h5.86l4.689-14.447h-4.151ZM93.316 18.61h4.065V4.162h-4.065V18.61Zm11.403-14.447-5.677 14.434h4.004l.904-2.558h6.715l.854 2.546h4.359l-5.726-14.422h-5.433Zm2.637 2.633 2.466 6.758h-5.005l2.539-6.758ZM12.7 6.562V4.58c.196-.013.391-.025.587-.025 5.42-.171 8.973 4.677 8.973 4.677s-3.834 5.338-7.948 5.338a5.03 5.03 0 0 1-1.6-.257V8.288c2.113.257 2.54 1.188 3.798 3.306l2.82-2.375s-2.063-2.706-5.53-2.706a8.25 8.25 0 0 0-1.1.05ZM12.7 0v2.963l.587-.037C20.82 2.669 25.74 9.121 25.74 9.121S20.1 16 14.227 16a8.924 8.924 0 0 1-1.514-.135v1.837c.415.049.842.085 1.257.085 5.47 0 9.426-2.803 13.26-6.108.634.514 3.235 1.75 3.772 2.289-3.639 3.06-12.124 5.521-16.934 5.521-.464 0-.903-.024-1.343-.073V22h20.78V0H12.7Zm0 14.312v1.567c-5.054-.906-6.458-6.183-6.458-6.183s2.43-2.693 6.459-3.134v1.714h-.013c-2.112-.257-3.772 1.726-3.772 1.726s.94 3.342 3.785 4.31ZM3.728 9.476s2.991-4.432 8.986-4.897V2.963C6.07 3.5.333 9.133.333 9.133s3.248 9.427 12.368 10.284v-1.714c-6.69-.833-8.974-8.227-8.974-8.227Z"/>
</svg>
